X: 10
T:Miss Wedderburn's Reel. WCa.10
M:C|
L:1/8
Q:200
S:Wm. Calvert MS, 1812, Leyburn, Yorks.
R:Reel
O:England
A:North Yorkshire
Z:vmp.Chris Partington, May 2003
K:A
E2E2 EFGA|BABd cAFA|E2E2 EGAc|BABc A/A/AA2::!
cBAB cdec|BAGA BdcB|cBAB cdec|BABc A/A/AA2::!
d2fd c2ec|B2dB cAFA|d2fdc2ec|B>AB>c A/A/AA2:||
